X:1
T:Domine ad adjuvandum me
T:Lassus edited BMarble
T:Domine ad adjuvandum me
T:Copyright © 2014 by CPDL.  This edition can be fully distributed, duplicated, performed, and recorded 
T:Copyright © 2014 by CPDL.  This edition can be fully distributed, duplicated, performed, and recorded 
T:Copyright © 2014 by CPDL.  This edition can be fully distributed, duplicated, performed, and recorded 
T:Copyright © 2014 by CPDL.  This edition can be fully distributed, duplicated, performed, and recorded 
T:Copyright © 2014 by CPDL.  This edition can be fully distributed, duplicated, performed, and recorded 
C:Lassus
C:edited BMarble
Z:Copyright © 2014 by CPDL.  This edition can be fully distributed, duplicated, performed, and recorded
%%score [ 1 2 3 4 ]
L:1/8
Q:1/2=88
M:4/2
K:Db
V:1 treble nm="Soprano" snm="S."
V:2 treble nm="Alto" snm="A."
V:3 treble-8 transpose=-12 nm="Tenor" snm="T."
V:4 bass nm="Bass" snm="B."
V:1
"^Make haste to help me, O Lord. Let them be confoundedthose that wish your servants ill." F12 F4 | %1
w: Do- mi-|
 F8 z4 f4 | =d4 d4 d8 | e4 B8 A4- | A4 d6 c2 B4- | B2 =A=G A4 B8 | B12 B4 | B8 B8 | c4 c4 d4 d4 | %9
w: ne, ad|ad- ju- van-|dum me fe-|* sti- * *|* * * * na,|Do- mi-|ne, ad|ad- ju- van- dum|
 B4 d8 B4- | B2 AG A4 F4 d4 | B4 d6 c2 B2 A2 | B8 A4 d4- | d4 d4 z8 | z8 z4 e4- | e4 A8 d4- | %16
w: me fe- sti-|* * * * na, con-|fun- dan- * * *|* tur o-|* mnes,|o-|* mnes ad-|
 d2 cB c4 B4 d4- | d2 cB c4 d4 A4 | F4 F4 A8- | A8 z4 d4 | f4 f4 d4 A4 | G2 F2 G6 G2 F4 | %22
w: * * * * ver- sum|_ _ _ _ me qui|co- gi- tant,|_ qui|co- gi- tant, qui|co- * * gi- tant,|
 z4 d4 B4 B4 | d8 z4 d4- | d2 cB A4 A8 | G8 F4 A4- | A2 GF E2 F2 G2 A2 B4- | B2 AG F2 G2 A4 E2 F2 | %28
w: qui co- gi-|tant ser-|* * * * vis|tu- is, ser-||* * * * * * vis _|
 G2 A2 B6 AG F2 G2 | A8 A4 =G4 | A4 B4 d8 | c8 B4 G4- |"^rit." G2 A2 B4 B8 | =A16 |] %34
w: _ _ _ _ _ _ _|* tu- is|ma- la, ser-|vis tu- is|_ _ _ ma-|la.|
V:2
 z8 C8- | C4 C4 C8 | F8 F4 F4 | G8 F8- | F8 D4 E4 | F8 F4 F4- | F4 F4 F8 | =G8 G4 G4 | A12 B4 | %9
w: Do-|* mi- ne,|ad ad- ju-|van- dum|_ me fe-|sti- na, Do-|* mi- ne,|ad ad- ju-|van- dum|
 =G4 A4 D6 E2 | F8 D4 G,4 | D4 G,2 A,2 B,2 C2 D4- | D4 B,4 F8 | D4 F6 E2 D2 C2 | D8 C8 | E8 A,8 | %16
w: me fe- sti- *|* na, con-|fun- dan- * * * *|* tur, con-|fun- dan- * * *|* tur,|o- mnes|
 E8 D8 | E8 F8 | z4 D4 F4 F4 | D6 E2 F2 G2 F4 | z4 D4 F4 F4 | D8 z4 D4 | B,4 B,4 D4 G4- | %23
w: ad- ver-|sum me|qui co- gi-|tant, _ _ _ _|qui co- gi-|tant, qui|co- gi- tant ser-|
 G2 FE D4 B,4 F4- | F2 ED C2 D2 C8 | B,4 E4 A,2 B,2 C2 D2 | E8 E6 DC | B,2 C2 D4 C6 B,A, | %28
w: * * * * vis ser-||vis tu- is, _ _ _|_ ser- * *|* * * vis _ _|
 B,6 C2 D2 E2 F4- | F2 ED C2 D2 E8 | F8 F4 F4- | F4 E4 G4 D4 | E8 D8 | C16 |] %34
w: _ _ _ _ _||tu- is, ser-|* vis tu- *|is ma-|la.|
V:3
 z8 =A8- | A4 =A4 A8 | B8 B8- | B4 e4 d4 c4 | d4 A4 B8 | c8 =d8- | d4 =d4 d8 | z4 e8 e4 | %8
w: Do-|* mi- ne,|ad ad-|* ju- van- dum|me fe- sti-|na, Do-|* mi- ne,|ad ad-|
 e4 f8 f4 | e4 A4 B6 c2 | d2 cB c4 B8 | z8 d8 | B4 d6 c2 B2 A2 | B4 A2 G2 F2 =G2 A4- | %14
w: ju- van- dum|me fe- sti- *|* * * * na,|con-|fun- dan- * * *||
 A2 =GF G4 A8 | A8 F8 | A6 E2 _G4 F4 | A8 A8- | A8 z4 d4 | f4 f4 d6 cB | A8 z4 d4 | B4 B4 d8- | %22
w: * * * * tur,|o- mnes|ad- * * ver-|sum me|_ qui|co- gi- tant, _ _|_ qui|co- gi- tant,|
 d8 z4 d4 | B4 B4 d6 cB | A8 z4 e4- | e2 dc B2 c2 d4 e4 | c6 BA B4 B4 | d6 cB A2 B2 c2 d2 | %28
w: _ qui|co- gi- tant, _ _|_ ser-|* * * * * * vis|tu- * * * is,|ser- * * * * * *|
 e4 d2 c2 B2 c2 d4- | d2 cB A2 B2 c4 B4 | d6 c2 B4 A4- | A2 B2 c2 A2 d4 B4- | B2 A2 G4 F8- | F16 |] %34
w: |* * * * * * vis|tu- * * is|_ _ _ _ _ ma-|* * * la.|_|
V:4
 z8 F,8- | F,4 F,4 F,8 | B,,8 B,,4 B,,4 | E,8 F,8 | D,4 D,4 G,8 | F,8 B,,4 B,4- | B,4 B,4 B,8 | %7
w: Do-|* mi- ne,|ad ad- ju-|van- dum|me fe- sti-|* na, Do-|* mi- ne,|
 E,8 E,4 E,4 | A,2 G,2 F,2 E,2 D,4 B,,4 | E,4 F,4 _G,8 | F,8 B,,4 B,4 | G,4 B,6 A,2 G,2 F,2 | %12
w: ad ad- ju-|van- * * * * dum|me fe- sti-|* na, con-|fun- dan- * * *|
 G,8 F,4 D,4 | B,,4 D,6 C,2 B,,2 A,,2 | B,,8 A,,8 | C,8 D,8 | A,,8 B,,8 | A,,8 D,8- | D,16 | %19
w: * tur, con-|fun- dan- * * *|* tur|o- mnes|ad- ver-|sum me|_|
 z4 D,4 B,,4 B,,4 | D,16 | z4 G,4 B,4 B,4 | G,16 | z4 G,6 F,E, D,4 | D,4 F,6 E,D, C,2 D,2 | %25
w: qui co- gi-|tant,|qui co- gi-|tant|ser- * * *|vis, ser- * * * *|
 E,4 E,4 D,4 A,,4 | A,6 G,F, E,2 F,2 G,4- | G,2 F,E, D,2 E,2 F,2 G,2 A,4 | E,4 G,6 F,E, D,2 E,2 | %29
w: * vis tu- is,|ser- * * * * *||vis, ser- * * * *|
 F,6 E,D, C,2 D,2 E,4 | D,4 B,,6 C,2 D,2 E,2 | F,2 G,2 A,4 G,6 F,2 | E,8 B,,8 | F,16 |] %34
w: |vis tu- * * *|* * * is _|_ ma-|la.|

